!!!!SEGMENT: pl-wn--mus-iii-86-061_zelenski-wladyslaw--morze.krn
!!!cenid: 18xx:3789
!!!COM: Żeleński, Władysław
!!!COM-rismID: pe41024455
!!!CDT: 1837/07/06-1921/01/23
!!!CNT: Polish
!!!OTL: Morze
!!!PDT: 1898
!!!AGN:
!!!SMS-siglum: PL-Wn
!!!SMS-shelfmark: Mus.III.86.061
!!!SMS-shelfwork: W
!!!SMS-variant:
!!!SMS-altvar:
!!!NIFC-rismSourceID:
!!!NIFC-rismChildID:
!!!NIFC-islandoraID: none
!!!URL-pdf-islandora:
!!!URL-scan: https://polona.pl/item/morze-kwartet-meski-a-cappella,NDU5Mzc0NzM/1 @EN{Scan on Polona} @PL{Skany w portalu Polona}
!!!ONB-nifc:
!!!AIN: 2 vox
!!!key: D
**kern	**text	**dynam	**kern	**text	**dynam
*part2	*part2	*part2	*part1	*part1	*part1
*staff2	*staff2	*	*staff1	*staff1	*
*I"[Voce]	*	*	*I"[Voce]	*	*
*I'[V]	*	*	*I'[V]	*	*
*ICvox	*	*	*ICvox	*	*
*Ivox	*	*	*Ivox	*	*
*clefF4	*	*	*clefG2	*	*
*k[f#c#]	*	*	*k[f#c#]	*	*
*D:	*	*	*D:	*	*
*M4/4	*	*	*M4/4	*	*
*met(c)	*	*	*met(c)	*	*
*^	*	*	*^	*	*
*xywh-#2:369,668,2187,392	*xywh-#2:369,668,2187,392	*	*	*xywh-#2:361,221,2176,563	*xywh-#2:361,221,2176,563	*	*
!	!	!	!	!LO:TX:a:B:t=Andante sostenuto.	!	!	!
!	!	!	!	!	!	!	!LO:DY:b
4A/	4A\	.	.	4a/	4a\	W pro-	mp
=1	=1	=1	=1	=1	=1	=1	=1
4.A/	4.D\	.	.	4.ff#/	4.dd\	-mie-	.
8F#/	8D\	.	.	8dd/	8a\	-niach	.
4F#/	4D\	.	.	4a/	4a\	słoń-	.
4F#/	4D\	.	.	4a,/	4a\	-ca	.
=2	=2	=2	=2	=2	=2	=2	=2
!	!	!	!	!	!	!	!LO:HP:a
!	!	!	!LO:HP:b	!	!	!	!
8G/L	4D\	.	<	8b/L	8b\L	lśnią	<
8A/J	.	.	.	8cc#/J	8cc#\J	.	.
8B/	8D\	.	.	8dd/	8dd\	wo-	.
8B-X/	8D\	.	.	8gg/	8dd\	-dy	.
8A/	8D\	.	.	4ff#,/	4dd\	mórz	.
8ryy	8ryy	.	.	.	.	.	.
4A/	4D\	.	[	4ff#/	4dd\	i	[
!!LO:LB:g=original	!	!	!	!	!	!	!
=3	=3	=3	=3	=3	=3	=3	=3
*xywh-#2:250,1260,2304,381	*xywh-#2:250,1260,2304,381	*	*	*xywh-#2:295,1052,2261,332	*xywh-#2:295,1052,2261,332	*	*
!	!	!	!LO:HP:b	!	!	!	!
4.A/	4.F#\	.	<	4.aa/	4.dd\	świe-	.
8A/	8F#\	.	.	8dd/	8dd\	-cą	.
4A/	4BB\	.	.	4dd/	4dd\	zło-	.
4G#X/	4BB\	.	.	4ee/	4dd\	-tym	.
=4	=4	=4	=4	=4	=4	=4	=4
4Gn/	4AA\	.	[	4.ee/	4.cc#\	blas-	.
4Fn/	4AA\	.	.	.	.	.	.
.	.	.	.	8dd/	8b\	-kiem	.
4E,/	4AA\	.	.	4cc#,/	4a\	zórz	.
!	!	!	!LO:DY:b	!	!	!	!LO:DY:a
4A/	4A\	.	pp	4a/	4a\	Gdy	pp
=5	=5	=5	=5	=5	=5	=5	=5
4.A/	4.D\	.	.	4.ff#/	4.dd\	le-	.
8F#/	8D\	.	.	8dd/	8a\	-gnę	.
4F#/	4D\	.	.	4a/	4a\	zi-	.
4F#/	4D\	.	.	4a/	4a\	-mny	.
!!LO:LB:g=original	!	!	!	!	!	!	!
=6	=6	=6	=6	=6	=6	=6	=6
*xywh-#2:250,1823,2321,403	*xywh-#2:250,1823,2321,403	*	*	*xywh-#2:236,1607,2267,312	*xywh-#2:236,1607,2267,312	*	*
!	!	!	!LO:HP:b	!	!	!	!
8G/L	4D\	.	<	8b/L	8b\L	w wie-	.
8A/J	.	.	.	8cc#/J	8cc#\J	.	.
8B/L	4D\	.	.	8dd/L	4dd\	-cznym	.
8B-X/J	.	.	.	8gg/J	.	.	.
4A,/	4D\	.	.	4ff#,/	4dd\	śnie,	.
4A/	4D\	.	.	4ff#/	4dd\	to	.
=7	=7	=7	=7	=7	=7	=7	=7
!	!	!	!LO:DY:b	!	!	!	!
!	!	!	!	!	!	!	!LO:DY:a
4B/	4BB\	.	[ f	4ff#/	4dd\	w mo-	f
4F#/	4BB\	.	.	4dd/	4b\	-rze	.
4F#/	4GG#X\	.	.	4b/	4b\	rzuć-	.
4F#/	4D\	.	.	4g#X/	4g#\	-cie	.
=8	=8	=8	=8	=8	=8	=8	=8
(2E#X/	(2C#\	.	.	(2cc#/	(2g#X\	mnie	.
4F#/)	4F#\)	.	.	4f#,/)	4f#\)	.	.
!	!	!	!	!	!	!	!LO:DY:a
4r	4ryy	.	.	4f#/	4f#\	Tak	p
!!LO:LB:g=original	!	!	!	!	!	!	!
=9	=9	=9	=9	=9	=9	=9	=9
*xywh-#2:261,2466,2289,324	*xywh-#2:261,2466,2289,324	*	*	*xywh-#2:270,2181,2295,321	*xywh-#2:270,2181,2295,321	*	*
4r	4ryy	.	.	4f#/	4f#\	czę-	.
(4E/	(4E\	Tak	.	8f#/	8f#\	-sto	.
.	.	.	.	8f#/	8f#\	mnie	.
8D/)	8D\)	.	.	8f#/L	8f#\L	ko-	.
8F#/	8D\	mnie	.	8b/J	8b\J	.	.
8F#/	8C#\	ko-	.	8cc#/	8a#X\	-ił	.
8F#/	8BB\	-ił	.	8dd/	8b\	ten	.
=10	=10	=10	=10	=10	=10	=10	=10
4.G/	4.AA#X\	.	.	4.ee/	4.cc#\	mi-	.
8F#/	8BB\	.	.	8dd/	8b\	-ły	.
4F#/	4BB\	.	.	4dd/	4b\	chłód	.
!	!	!	!	!	!	!	!LO:DY:a
4r	4ryy	.	.	4g/	4g\	tych	sf
!!LO:LB:g=original	!	!	!	!	!	!	!
=11	=11	=11	=11	=11	=11	=11	=11
*xywh-#2:238,2946,2304,386	*xywh-#2:238,2946,2304,386	*	*	*xywh-#2:264,2759,2295,315	*xywh-#2:264,2759,2295,315	*	*
!	!	!	!	!	!	!	!LO:HP:a:t=cresc
4r	4ryy	.	.	4g/	4g\	ci-	<
!	!	!	!LO:DY:b	!	!	!	!
(4Fn/	(4F\	tych	sf	8g/	8g\	-chych	.
!	!	!	!LO:HP:b:t=cresc	!	!	!	!
.	.	.	<	8g/	8g\	tych	.
8E/L)	4E\)	sre-	.	8g/L	8g\L	sre-	.
8G/J	.	.	.	8ccn/J	8cc\J	.	.
8G,/	8D\	-brnych	.	8dd,/	8b\	-brnych	.
8G/	8Cn\	.	.	8ee/	8cc\	spo-	.
=12	=12	=12	=12	=12	=12	=12	=12
4.A-X/	4.BB\	.	.	4.ffn/	4.dd\	-koj-	.
8G/	8Cn\	.	.	8ee/	8ccn\	-nych	.
4G,/	4C\	.	.	4ee,/	4cc\	wód,	.
!	!	!	!LO:DY:b	!	!	!	!LO:DY:a
4B-X/	4C\	.	f	4ee/	4cc\	ja	f
=13	=13	=13	=13	=13	=13	=13	=13
4.An/	4.Fn\	.	.	4.aa/	4.ccn\	za-	.
8A/	8F\	.	.	8cc/	8ccn\	-wsze	.
4A,/	4F\	.	.	4dd,/	4b\	tak	.
!	!	!	!LO:DY:b	!	!	!	!LO:DY:a
4A/	4F\	.	p	4dd#X/	4b\	lu-	p
!!LO:LB:g=original	!	!	!	!	!	!	!
=14	=14	=14	=14	=14	=14	=14	=14
*xywh-#3:117,554,2338,374	*xywh-#3:117,554,2338,374	*	*	*xywh-#3:172,264,2246,390	*xywh-#3:172,264,2246,390	*	*
4.A/	4.E\	.	.	4.ff#X/	4.cc#X\	-bi-	.
8A/	8E\	.	.	8ee/	8cc#\	-łem	.
8F#,/	8F#X\	.	.	8a,/	8a\	je	.
8F#/	8F#\	.	.	8a/	8a\	gdy	.
8Fn/	8D\	.	.	8b/	8a\	u-	.
8F/	8D\	.	.	8b/	8a\	-mrę	.
=15	=15	=15	=15	=15	=15	=15	=15
4.E/	4.AA\	.	.	4.cc#/	4.a\	rzuć-	.
!	!	!	!LO:HP:b	!	!	!	!LO:HP:a
8E/	8AA\	.	<	8cc#/	8a\	-cie	<
2E/	2BB\	.	.	2dd/	(4a\	tam	.
.	.	.	[[	.	4g#X\)	.	[[
=16	=16	=16	=16	=16	=16	=16	=16
!	!	!	!LO:HP:b	!	!	!	!LO:HP:a
2.A/	2.C#\	.	>	2.ee/	2.gn\	mnie.	>
4A/	4A\	.	.	4a/	4a\	Tam	.
!!LO:LB:g=original	!	!	!	!	!	!	!
=17	=17	=17	=17	=17	=17	=17	=17
*xywh-#3:76,1168,2316,370	*xywh-#3:76,1168,2316,370	*	*	*xywh-#3:52,929,2403,337	*xywh-#3:52,929,2403,337	*	*
!	!	!	!LO:DY:b	!	!	!	!LO:DY:a
!	!	!	!LO:HP:b	!	!	!	!
4.A/	4.D\	.	] p	4.ff#/	4.dd\	bi-	] p
8F#/	8D\	.	.	8dd/	8a\	-je	.
4F#/	4D\	.	.	4a/	4a\	wie-	.
4F#/	4D\	.	.	4a/	4a\	-cznej	.
=18	=18	=18	=18	=18	=18	=18	=18
!	!	!	!LO:HP:b	!	!	!	!LO:HP:a
8G/L	4.D\	.	<	8b/L	8b\L	ci-	<
8A/J	.	.	.	8cc#/J	8cc#\J	.	.
8B/L	.	.	.	8dd/L	4dd\	-szy	.
8B-X/J	8D\	.	.	8gg/J	.	.	.
4A,/	4D\	.	[	4ff#,/	4dd\	zdrój,	[
4A/	4D\	.	.	4ff#/	4dd\	tam	.
=19	=19	=19	=19	=19	=19	=19	=19
2A/	2F#\	.	.	2aa/	2dd\	sko-	.
4A/	4BB\	.	.	4dd/	4dd\	-na	.
!	!	!	!LO:DY:b	!	!	!	!LO:DY:a
4G#X/	4BB\	.	p	4ee/	4dd\	nie-	p
!!LO:LB:g=original	!	!	!	!	!	!	!
=20	=20	=20	=20	=20	=20	=20	=20
*xywh-#3:63,1746,2338,379	*xywh-#3:63,1746,2338,379	*	*	*xywh-#3:96,1517,2294,335	*xywh-#3:96,1517,2294,335	*	*
4Gn/	4AA\	.	.	4.ee/	4.cc#\	-po-	.
4Fn/	4AA\	.	.	.	.	.	.
.	.	.	.	8dd/	8b\	-kój	.
4E/	4AA\	.	.	4cc#/	4a\	mój	.
!	!	!	!	!	!	!	!LO:DY:a
4r	4ryy	.	.	4a/	4a\	na	p
=21	=21	=21	=21	=21	=21	=21	=21
4r	4ryy	.	.	4a/	4a\	twar-	.
4G/	4G\	na	.	8a/	8a\	-dym	.
!	!	!	!	!	!	!	!LO:HP:a
!	!	!	!LO:HP:b	!	!	!	!
.	.	.	<	8a/	8a\	na	<
8Fn/L	4F\	chło-	.	8a/L	8a\L	chło-	.
8A/J	.	.	.	8dd/J	8dd\J	.	.
8A/	8E\	-dnym	.	8ee,/	8cc#\	-dnym	.
8A/	8D\	tych	[[	8ffn/	8dd\	tych	[[
=22	=22	=22	=22	=22	=22	=22	=22
4.B-X/	4.C#X\	.	.	4.gg/	4.ee\	fa-	.
8A/	8D\	.	.	8ffn/	8dd\	-li	.
4A/	4D\	.	.	4ff,/	4dd\	dnie,	.
!	!	!	!	!	!	!	!LO:DY:a
4r	4ryy	.	.	4fn/	4f\	na	pp
!!LO:LB:g=original	!	!	!	!	!	!	!
=23	=23	=23	=23	=23	=23	=23	=23
*xywh-#3:69,2365,2310,398	*xywh-#3:69,2365,2310,398	*	*	*xywh-#3:83,2125,2318,324	*xywh-#3:83,2125,2318,324	*	*
4r	4ryy	.	.	4fn/	4f\	twar-	.
4E-X/	4E-\	na	.	8f/	8f\	-dym	.
.	.	.	.	8f/	8f\	na	.
8D/L	4D\	chło-	.	8f/L	8f\L	chło-	.
8Fn/J	.	.	.	8b-X/J	8b-\J	.	.
8F,/	8Cn\	-dnym	.	8ccn,/	8a\	-dnym	.
8F/	8BB-X\	tych	.	8dd/	8b-\	tych	.
=24	=24	=24	=24	=24	=24	=24	=24
4.G-X/	4.AA\	fa-	.	4.ee-X/	4.ccn\	fa-	.
8Fn/	8BB-X\	-li	.	8dd/	8b-X\	-li	.
4F/	4BB-\	dnie	.	4dd/	4b-\	dnie	.
!	!	!	!LO:DY:b	!	!	!	!LO:DY:a
4Gn/	4BB-\	.	f	4dd/	4dd\	O!	f
=25	=25	=25	=25	=25	=25	=25	=25
2A/	2AA\	.	.	2ff#/	2dd\	bra-	.
4F#/	4AA\	.	.	4dd/	4a\	-cia	.
8B/	8AA\	.	.	8dd/	8g#X\	rzuć-	.
8B/	8AA\	.	.	8dd/	8g#\	-cie	.
!!LO:LB:g=original	!	!	!	!	!	!	!
=26	=26	=26	=26	=26	=26	=26	=26
*xywh-#3:100,2954,2246,359	*xywh-#3:100,2954,2246,359	*	*	*xywh-#3:124,2733,2238,320	*xywh-#3:124,2733,2238,320	*	*
!	!	!	!LO:HP:b	!	!	!	!LO:HP:a
2E/	2AA\	.	>	(4dd/	2gn\	tam	>
.	.	.	.	4cc#/)	.	.	.
4D/	4BB\	.	.	4dd,/	4f#\	mnie,	.
!	!	!	!LO:DY:b	!	!	!	!
!	!	!	!LO:HP:b	!	!	!	!LO:DY:a
8E/L	4AA\	.	] p	4dd/	4ccn\	o!	] p
8F#/J	.	.	.	.	.	.	.
=27	=27	=27	=27	=27	=27	=27	=27
!	!	!	!LO:HP:b	!	!	!	!LO:HP:a
2G/	[2GG\	.	<	2.dd/	(4ccn\	rzuć-	<
.	.	.	.	.	4b\)	.	.
!	!	!	!LO:HP:b	!	!	!	!LO:HP:a
4.G/	8GG\L]	.	[ >	.	4.b\	.	[ >
.	8AA\J	.	.	.	.	.	.
.	8BB\	.	.	8dd/	.	-cie	.
8G/	8C#\	.	]]	8dd/	8b-X\	tam	]]
=28	=28	=28	=28	=28	=28	=28	=28
!	!	!	!LO:DY:b	!	!	!	!LO:DY:a
2.F#/	2.D\	.	pp	2.d;/	2.a\	mnie.	pp
*v	*v	*	*	*	*	*	*
*	*	*	*v	*v	*	*
==	==	==	==	==	==
*-	*-	*-	*-	*-	*-
!!!system-decoration: [(s1,s2)]
!!!ENC: Andrzej Gręziak
!!!END: 2022-03-23
!!!ENC: Jan Barakat
!!!END: 2022-03-28
!!!YEC: Copyright 2022 Narodowy Instytut Fryderyka Chopina (https://polishscores.org)
!!!YEM: License CC-BY-4.0 (https://creativecommons.org/licenses/by/4.0)
!!!IIIF: https://polona.pl/iiif/item/NDU5Mzc0NzM/manifest.json
!!!ENC-iiif: Olaf Gawdzik
!!!END-iiif: 2022-09-16
